src/dsmComponents/Icons/people-1-16px.svg

<?xml version="1.0" encoding="UTF-8"?>
<svg width="16px" height="10px" viewBox="0 0 16 10" version="1.1" xmlns="http://www.w3.org/2000/svg" xmlns:xlink="http://www.w3.org/1999/xlink">
    <!-- Generator: Sketch 59.1 (86144) - https://sketch.com -->
    <title>people-1-16px</title>
    <desc>Created with Sketch.</desc>
    <defs>
        <path d="M11.5,6 C13.285,6 14.539,6.708 15.262,7.282 C15.735,7.657 16,8.232 16,8.836 L16,8.836 L16,10 L11,10 L11,8.836 C11,7.836 10.625,6.909 9.981,6.189 C10.437,6.075 10.939,6 11.5,6 Z M4.5,6 C6.285,6 7.539,6.708 8.262,7.282 C8.735,7.657 9,8.232 9,8.836 L9,8.836 L9,10 L0,10 L0,8.836 C0,8.232 0.265,7.657 0.738,7.282 C1.461,6.708 2.715,6 4.5,6 Z M4.5,0 C5.88071187,0 7,1.11928813 7,2.5 C7,3.88071187 5.88071187,5 4.5,5 C3.11928813,5 2,3.88071187 2,2.5 C2,1.11928813 3.11928813,0 4.5,0 Z M11.5,0 C12.8807119,0 14,1.11928813 14,2.5 C14,3.88071187 12.8807119,5 11.5,5 C10.1192881,5 9,3.88071187 9,2.5 C9,1.11928813 10.1192881,0 11.5,0 Z" id="path-1"></path>
    </defs>
    <g id="Final" stroke="none" stroke-width="1" fill="none" fill-rule="evenodd">
        <g id="All-Nucleo-Icons" transform="translate(-319.000000, -5154.000000)">
            <g id="Solo/Nucleo/16px/people-1" transform="translate(315.000000, 5147.000000)">
                <g id="multiple" transform="translate(4.000000, 7.000000)">
                    <g id="Colour/Default-Colour">
                        <mask id="mask-2" fill="white">
                            <use xlink:href="#path-1"></use>
                        </mask>
                        <g id="Mask" fill-rule="nonzero"></g>
                        <g id="colour/neutral/chia" mask="url(#mask-2)" fill="#737373">
                            <g transform="translate(-24.000000, -27.000000)" id="Colour">
                                <rect x="0" y="0" width="64" height="64"></rect>
                            </g>
                        </g>
                    </g>
                </g>
            </g>
        </g>
    </g>
</svg>

<svg width="16" height="10" xmlns="http://www.w3.org/2000/svg" xmlns:xlink="http://www.w3.org/1999/xlink"><defs><path d="M11.5 6c1.785 0 3.039.708 3.762 1.282.473.375.738.95.738 1.554V10h-5V8.836c0-1-.375-1.927-1.019-2.647A6.206 6.206 0 0111.5 6zm-7 0c1.785 0 3.039.708 3.762 1.282.473.375.738.95.738 1.554V10H0V8.836c0-.604.265-1.179.738-1.554C1.461 6.708 2.715 6 4.5 6zm0-6a2.5 2.5 0 110 5 2.5 2.5 0 010-5zm7 0a2.5 2.5 0 110 5 2.5 2.5 0 010-5z" id="people-1-16px_svg__a"/></defs><use fill="#737373" xlink:href="#people-1-16px_svg__a" fill-rule="evenodd"/></svg>
